X:21127 
T:MAYOR HARRISON'S FEDORA  
B:DMI.0799
Z:Nordberg/Black
N:1:Nordberg's transcription omits the 3rd part.
N:2:The source version has no C sharps. If you want to hear what that
version sounds like, replace D with G in the K: field.
H:Chicago had two Mayor Harrisons, father and son. Harrison Sr. 
(term 1879-1887) is the only one pictured with a hat! 
R:reel
%Q:1/4=180
M:C|
L:1/8
K:D
"E dorian"
EF|GEEG B2AF|GFGA BAGE|FDDF A2FA|dcdB AGFA|
GEFG B2AF|GFGA B2Bc|dedB AGFA|GEFD E2||
Ac|Bcdf e2ef|edef edBA|GABc d2de|dBgf edBA|
Bcdf edef|gage dcBc|dedB AGFA|GEFD E2|
EF|GABA G2Bc|d2AG FDDF|EDEG BABd|gefd edge|
dedB ABAF|GFEF GABc|dedB AGFA|GEFD E4|]


%%%

